!!!SOCIAL_FUNCTION:	songs of the bear dance
!!!PDT:	1922
!!!OTL: No_5_Bear_Dance_Song_(a).krn
!!!REG: Southwest
!!!LANG: Non-Tone
!!!LING_GROUP: Uto-Aztecan
**kern
*staff1
*clefF4
*k[b-e-]
*M2/4
8c\
=1
4.c\
8c\
=2
4.c\
8c\
=3
4.c\
8c\
=4
4.c\
8d\
=5
4d\
4c\
=6
4.d\
8f\
=7
4.f\
8d\
=8
4.B-\
8G\
=9
4.F\
8F\
=10
4.F\
8F\
=11
4.F\
8F\
=12
2F\
=13
4c\
4G\
=14
4B-\
8.F\L
16B-\Jk
=15
4.B-\
8c\
=16
4.c\
8G\
=17||
*M3/4
4G\
4.F\
8F\
=18||
*M2/4
4.F\
8F\
=19
4.F\
8F\
=20
2F\
==
*-
